X: 14311
T: Gallagher's Frolics
R: jig
M: 6/8
K: Eminor
|:E3 GFE|B3 dBA|B3 B2 A|G3 AGF|
E3 GFE|B3 dBA|BAG F2 A|GFD E2 z:|
|:e2 g gfe|g2 g bge|d3 f3|a2 a agf|
e2 g- gfe|d2 e dBA|BAG F2 A|GFD E2 z:|

